dist/img/capability-img-1.svg

<svg width="54" height="54" viewBox="0 0 54 54" fill="none" xmlns="http://www.w3.org/2000/svg">
<path d="M16.2184 0.521931C15.2705 0.803181 14.5934 1.1886 13.9476 1.83443C13.2809 2.5011 12.8955 3.1261 12.6143 4.02193C12.3747 4.80318 12.333 7.65735 12.5622 8.5011C12.7601 9.24068 13.1976 10.0636 13.6768 10.5844C13.9893 10.9282 14.083 11.1053 14.083 11.3969V11.7615L10.9163 12.824C9.06218 13.4386 7.61426 13.9803 7.40593 14.1365C6.92676 14.4907 6.49968 15.1469 6.42676 15.6678C6.33301 16.3344 6.41635 30.7615 6.52051 31.0219L6.60385 31.2615H4.28093C2.99968 31.2615 1.78093 31.3136 1.56218 31.3657C1.09343 31.5011 0.468428 32.1678 0.385095 32.6365C0.353845 32.824 0.333012 34.6782 0.353845 36.7511C0.385095 40.3865 0.395512 40.5323 0.603845 40.8136C0.718428 40.9698 0.978845 41.2094 1.16635 41.3344C1.5101 41.574 1.5101 41.574 6.0726 41.574H10.6455V46.7303V51.8865H7.20801H3.77051V52.7719V53.6573H26.9997H50.2289V52.7719V51.8865H47.8122L45.3851 51.8761L45.7914 51.6469C46.0101 51.5219 46.5934 51.1365 47.083 50.7928C53.1351 46.5428 55.3226 38.5844 52.2809 31.8344C50.833 28.6157 48.2393 25.9178 45.0726 24.3448C44.4476 24.0323 43.6559 23.699 43.333 23.5948C42.9997 23.4907 42.7289 23.3761 42.7289 23.3344C42.7289 23.3032 42.8539 23.0428 43.0101 22.7615C43.2497 22.3344 43.3018 22.1261 43.3018 21.5219C43.2914 20.6261 43.0309 20.0011 42.4268 19.4073C42.0309 19.0219 41.2393 18.6886 33.7601 15.699L25.5309 12.4073L23.2497 12.0219C20.9997 11.6573 20.958 11.6365 20.958 11.3969C20.958 11.2511 21.1663 10.8969 21.4476 10.5532C22.458 9.3136 22.7913 8.0636 22.6976 5.84485C22.6247 3.9386 22.2288 2.9386 21.1351 1.85526C19.8018 0.532349 17.9163 0.0219307 16.2184 0.521931ZM18.9997 2.38651C19.6768 2.71985 20.3018 3.36568 20.6247 4.05318C20.8851 4.59485 20.9059 4.77193 20.9372 6.20943C20.9684 7.6261 20.9476 7.84485 20.7393 8.39693C20.1247 10.0428 18.2601 10.9803 16.583 10.4907C15.4372 10.1573 14.4476 9.08443 14.1976 7.90735C13.9476 6.78235 14.0934 4.65735 14.4684 3.92818C14.8434 3.20943 15.7497 2.45943 16.583 2.1886C17.1038 2.02193 18.4788 2.13651 18.9997 2.38651ZM16.9476 12.2928C17.5309 12.3761 18.3434 12.3136 19.0101 12.1469C19.2913 12.074 19.2913 12.074 19.2913 12.5844V13.0948L22.1768 13.5844L25.0622 14.074L33.0309 17.2511C41.8226 20.7615 41.583 20.6365 41.583 21.5115C41.583 21.8865 41.5205 22.0323 41.2705 22.2823C40.9268 22.6365 40.4268 22.7615 39.9684 22.6261C39.7914 22.574 36.6455 21.4073 32.958 20.0219L26.2705 17.5115H24.4997H22.7288V34.699V51.8865H20.5413H18.3538V40.324V28.7615H17.5205H16.6872V40.324V51.8865H14.5518H12.4163V46.7303V41.574H12.6663C12.9684 41.574 13.5205 41.2094 13.8122 40.8136C14.0205 40.5323 14.0309 40.3865 14.0622 36.699C14.083 34.1678 14.0622 32.7511 13.9788 32.4907C13.833 31.9803 13.3434 31.5011 12.8226 31.3657L12.4163 31.2511V24.3865V17.5115H11.5309H10.6455V23.9282C10.6455 29.6782 10.6247 30.3761 10.4788 30.6365C9.95801 31.5115 8.65593 31.4386 8.20801 30.5011C8.05176 30.1573 8.04135 29.5115 8.06218 22.9907C8.09343 15.9803 8.09343 15.8448 8.30176 15.6365C8.43718 15.5115 9.92676 14.9594 12.1559 14.2094L15.8018 12.9803L15.833 12.5219C15.8643 12.1157 15.8851 12.0844 16.0934 12.1469C16.2184 12.1782 16.6038 12.2511 16.9476 12.2928ZM30.833 21.074C35.2289 22.7198 35.6247 22.8865 35.3122 22.9594C33.9268 23.324 32.9684 23.6157 32.2184 23.9178C29.3538 25.0844 26.7497 27.3344 24.9476 30.2094L24.3955 31.0844V25.1886V19.2823H25.208C25.9997 19.2719 26.0934 19.3032 30.833 21.074ZM39.4268 24.4907C44.7914 25.0115 49.1664 28.3865 51.1039 33.5011C51.6872 35.0115 51.833 35.9698 51.8434 38.0844C51.8434 39.6157 51.8018 40.2615 51.6559 40.949C50.4893 46.3448 46.3539 50.4803 40.958 51.6469C40.2705 51.7928 39.6247 51.8344 38.0934 51.8344C36.3747 51.824 35.9893 51.7928 35.1247 51.5844C32.6247 50.9594 30.4788 49.8032 28.7288 48.1365C23.1038 42.7719 22.9997 33.9073 28.4997 28.449C31.0518 25.9073 34.333 24.5219 38.0414 24.4073C38.2393 24.3969 38.8643 24.4386 39.4268 24.4907ZM10.0726 34.0844C8.06218 35.4282 7.85385 35.5323 7.20801 35.5323C6.56218 35.5323 6.35385 35.4282 4.34343 34.0844L2.78093 33.0323H7.20801H11.6351L10.0726 34.0844ZM3.7601 35.7719C5.7601 37.1053 6.10385 37.2511 7.2601 37.2511C8.3851 37.2407 8.5726 37.1678 10.6872 35.7511C11.4684 35.2198 12.1768 34.7615 12.2601 34.7303C12.3955 34.6886 12.4163 35.0532 12.4163 37.2928V39.9073H7.2601H2.10385V37.2928C2.10385 35.2407 2.1351 34.699 2.23926 34.7615C2.30176 34.8032 2.98926 35.2615 3.7601 35.7719ZM24.8122 45.9178C25.9476 47.949 27.8955 49.949 30.0726 51.3136L30.9893 51.8865H27.6976H24.3955V48.6053C24.3955 46.8032 24.4163 45.324 24.4372 45.324C24.458 45.324 24.6351 45.5948 24.8122 45.9178Z" fill="white"/>
<path d="M36.6357 26.2303C34.6462 26.4803 32.3024 27.4803 30.7399 28.7303L30.3545 29.0324L30.6253 29.3345C30.7712 29.5116 31.0212 29.8032 31.1774 29.9803L31.4691 30.3241L32.2295 29.772C32.6566 29.4803 33.3753 29.0532 33.8337 28.8345C34.6878 28.4386 36.4691 27.9282 37.0107 27.9282H37.3128V29.1782V30.4282H38.1982H39.0837V29.1678V27.9074L39.667 27.9803C43.1462 28.4074 46.4378 31.0324 47.7816 34.4386C48.0316 35.0636 48.4482 36.7824 48.4587 37.1678C48.4587 37.272 48.1357 37.3032 47.2087 37.3032H45.9587V38.1886V39.0741H47.2191H48.4691L48.3962 39.5636C48.1462 41.3136 47.3649 43.1991 46.3857 44.4282C46.2087 44.647 46.0628 44.8657 46.0628 44.897C46.0732 44.9907 47.2087 45.897 47.3128 45.897C47.4899 45.897 48.3337 44.6782 48.8232 43.7511C51.2607 39.0428 50.4274 33.4595 46.6982 29.7095C44.9066 27.9074 42.6982 26.7616 40.1878 26.3136C39.3545 26.1678 37.4482 26.1261 36.6357 26.2303Z" fill="white"/>
<path d="M28.8029 30.6365C27.7508 31.9282 26.8549 33.8136 26.4174 35.6053C26.1883 36.5845 26.1049 38.7407 26.2612 39.8032C26.657 42.4595 27.8341 44.824 29.7195 46.6886C33.4695 50.4178 39.0529 51.2511 43.7612 48.8136C44.6883 48.324 45.907 47.4803 45.907 47.3032C45.907 47.199 45.0008 46.0636 44.907 46.0532C44.8758 46.0532 44.657 46.199 44.4383 46.3761C43.2091 47.3553 41.3237 48.1365 39.5841 48.3865L39.0841 48.4595V47.2095V45.949H38.1987H37.3133V47.199C37.3133 48.1261 37.282 48.449 37.1883 48.449C36.7924 48.4386 35.0737 48.022 34.4487 47.772C32.0529 46.824 29.8966 44.7928 28.8237 42.4803C28.4174 41.6053 28.0945 40.5011 27.9904 39.6574L27.9174 39.074H29.1779H30.4383V38.1886V37.3032H29.1883H27.9383V37.0011C27.9383 36.4595 28.4487 34.6782 28.8445 33.824C29.0633 33.3657 29.4904 32.647 29.782 32.2199L30.3341 31.4594L29.9904 31.1678C29.8133 31.0011 29.5216 30.7511 29.3445 30.6157L29.032 30.3553L28.8029 30.6365Z" fill="white"/>
<path d="M37.3125 35.6365V39.074H39.4479H41.5833V38.1886V37.3031H40.3333H39.0833V34.7511V32.199H38.1979H37.3125V35.6365Z" fill="white"/>
<path d="M0.333252 52.7719V53.6573H1.21867H2.1145L2.08325 52.7928L2.052 51.9386L1.19783 51.9074L0.333252 51.8761V52.7719Z" fill="white"/>
<path d="M51.9687 51.9594C51.927 51.9907 51.8958 52.3969 51.8958 52.8448V53.6573H52.7812H53.6666V52.7719V51.8865H52.8541C52.4062 51.8865 51.9999 51.9178 51.9687 51.9594Z" fill="white"/>
</svg>

<svg width="54" height="54" fill="none" xmlns="http://www.w3.org/2000/svg"><path d="M16.218.522c-.947.281-1.625.667-2.27 1.312-.667.667-1.053 1.292-1.334 2.188-.24.781-.281 3.635-.052 4.48.198.739.636 1.562 1.115 2.082.312.344.406.521.406.813v.364l-3.167 1.063c-1.854.615-3.302 1.156-3.51 1.313-.48.354-.906 1.01-.98 1.53-.093.667-.01 15.095.095 15.355l.083.24H4.28c-1.281 0-2.5.052-2.719.104-.469.135-1.094.802-1.177 1.27-.031.188-.052 2.042-.031 4.115.031 3.636.042 3.781.25 4.063.114.156.375.395.562.52.344.24.344.24 4.907.24h4.572V51.887H3.772v1.77h46.458v-1.771h-2.417l-2.427-.01.406-.23c.22-.124.802-.51 1.292-.853a15.427 15.427 0 0 0 5.198-18.959 15.582 15.582 0 0 0-7.208-7.49c-.625-.312-1.417-.645-1.74-.75-.333-.103-.604-.218-.604-.26 0-.03.125-.291.281-.572.24-.428.292-.636.292-1.24-.01-.896-.271-1.52-.875-2.115-.396-.385-1.188-.718-8.667-3.708l-8.23-3.292-2.28-.385c-2.25-.365-2.292-.386-2.292-.625 0-.146.208-.5.49-.844 1.01-1.24 1.343-2.49 1.25-4.708-.073-1.906-.47-2.906-1.563-3.99C19.802.532 17.916.022 16.218.522ZM19 2.387c.677.333 1.302.979 1.625 1.666.26.542.28.719.312 2.156.031 1.417.01 1.636-.198 2.188-.614 1.646-2.479 2.583-4.156 2.094-1.146-.334-2.135-1.407-2.385-2.584-.25-1.125-.105-3.25.27-3.979.375-.719 1.282-1.469 2.115-1.74.52-.166 1.896-.051 2.417.199Zm-2.052 9.906c.583.083 1.395.02 2.062-.146.281-.073.281-.073.281.437v.51l2.886.49 2.885.49 7.969 3.177c8.792 3.51 8.552 3.386 8.552 4.26 0 .376-.063.521-.313.771-.343.355-.843.48-1.302.344-.177-.052-3.323-1.219-7.01-2.604l-6.688-2.51H22.73v34.375h-4.375V28.761H16.687v23.125h-4.271V41.573h.25c.302 0 .854-.365 1.146-.76.209-.282.219-.428.25-4.115.021-2.531 0-3.948-.083-4.208-.146-.51-.636-.99-1.156-1.125l-.407-.115V17.512h-1.771v6.416c0 5.75-.02 6.448-.166 6.709-.521.875-1.823.802-2.271-.136-.156-.344-.167-.99-.146-7.51.031-7.01.031-7.146.24-7.354.135-.126 1.625-.678 3.854-1.428l3.646-1.229.031-.458c.031-.406.052-.438.26-.375.125.031.51.104.855.146Zm13.885 8.781c4.396 1.646 4.792 1.813 4.48 1.885-1.386.365-2.345.657-3.095.959-2.864 1.166-5.468 3.416-7.27 6.291l-.553.875V19.282h.813c.792-.01.885.021 5.625 1.792Zm8.594 3.417c5.364.52 9.74 3.896 11.677 9.01.583 1.51.729 2.469.74 4.583 0 1.532-.042 2.177-.188 2.865-1.167 5.396-5.302 9.531-10.698 10.698-.688.146-1.333.187-2.865.187-1.718-.01-2.104-.041-2.968-.25-2.5-.625-4.646-1.78-6.396-3.448-5.625-5.364-5.73-14.229-.23-19.687 2.553-2.542 5.834-3.927 9.542-4.042.198-.01.823.032 1.386.084Zm-29.354 9.593c-2.01 1.344-2.22 1.448-2.865 1.448-.646 0-.854-.104-2.865-1.448l-1.562-1.052h8.854l-1.562 1.052ZM3.76 35.772c2 1.333 2.344 1.48 3.5 1.48 1.125-.011 1.313-.084 3.427-1.5.781-.532 1.49-.99 1.573-1.022.136-.041.156.323.156 2.563v2.614H2.104v-2.614c0-2.052.031-2.594.135-2.532.063.042.75.5 1.521 1.01Zm21.052 10.146c1.136 2.031 3.083 4.031 5.26 5.396l.917.572H24.395v-3.28c0-1.803.021-3.282.042-3.282s.198.27.375.594Z" fill="#fff"/><path d="M36.636 26.23c-1.99.25-4.334 1.25-5.896 2.5l-.385.302.27.302c.146.178.396.47.552.646l.292.344.76-.552a14.615 14.615 0 0 1 1.605-.938c.854-.395 2.635-.906 3.177-.906h.302v2.5h1.771v-2.52l.583.072c3.48.427 6.77 3.052 8.115 6.459.25.625.666 2.343.677 2.729 0 .104-.323.135-1.25.135h-1.25v1.771h2.51l-.073.49c-.25 1.75-1.031 3.635-2.01 4.864-.177.219-.323.438-.323.469.01.094 1.146 1 1.25 1 .177 0 1.02-1.219 1.51-2.146 2.438-4.708 1.604-10.291-2.125-14.041-1.791-1.803-4-2.948-6.51-3.396-.834-.146-2.74-.188-3.552-.084ZM28.803 30.637c-1.052 1.291-1.948 3.177-2.386 4.968-.229.98-.312 3.136-.156 4.198.396 2.657 1.573 5.021 3.459 6.886 3.75 3.729 9.333 4.562 14.041 2.125.927-.49 2.146-1.334 2.146-1.51 0-.105-.906-1.24-1-1.25-.031 0-.25.145-.469.322-1.229.98-3.114 1.76-4.854 2.01l-.5.073v-2.51h-1.771v1.25c0 .927-.031 1.25-.125 1.25-.396-.01-2.114-.427-2.74-.677-2.395-.948-4.551-2.98-5.624-5.292-.407-.875-.73-1.979-.834-2.823l-.073-.583h2.521v-1.771h-2.5v-.302c0-.541.51-2.323.907-3.177.218-.458.645-1.177.937-1.604l.552-.76-.344-.292a10.116 10.116 0 0 0-.645-.552l-.313-.26-.23.28Z" fill="#fff"/><path d="M37.313 35.636v3.438h4.27v-1.771h-2.5V32.2h-1.771v3.438ZM.333 52.772v.885H2.114l-.03-.864-.032-.854-.854-.032-.865-.03v.895ZM51.969 51.96c-.042.03-.073.437-.073.885v.812h1.771v-1.771h-.813c-.448 0-.854.032-.885.073Z" fill="#fff"/></svg>
